Origami/22x22/apps/winefile.svg

<svg width="22" height="22" version="1" xmlns="http://www.w3.org/2000/svg">
 <rect x="2" y="1" width="18" height="12" rx=".75" ry=".75" style="fill:#525252"/>
 <rect x="2" y="2.5" width="18" height="12" rx=".75" ry=".75" style="opacity:.1"/>
 <rect x="2" y="3" width="18" height="12" rx=".75" ry=".75" style="fill:#89e058"/>
 <rect x="2" y="4.5" width="18" height="12" rx=".75" ry=".75" style="opacity:.1"/>
 <rect x="2" y="5" width="18" height="12" rx=".75" ry=".75" style="fill:#ffcd54"/>
 <rect x="1" y="7.5" width="20" height="14" rx="1" ry="1" style="opacity:.2"/>
 <rect x="1" y="7" width="20" height="14" rx="1" ry="1" style="fill:#8e8e8e"/>
 <rect x="8" y="12.5" width="6" height="2" rx=".5" ry=".5" style="opacity:.2"/>
 <rect x="8" y="12" width="6" height="2" rx=".5" ry=".5" style="fill:#ececec"/>
 <path d="m2.75 1c-0.4155 0-0.75 0.3345-0.75 0.75v0.5c0-0.4155 0.3345-0.75 0.75-0.75h16.5c0.416 0 0.75 0.3345 0.75 0.75v-0.5c0-0.4155-0.334-0.75-0.75-0.75h-16.5z" style="fill:#ffffff;opacity:.1"/>
 <path d="m2.75 3c-0.4155 0-0.75 0.3345-0.75 0.75v0.5c0-0.4155 0.3345-0.75 0.75-0.75h16.5c0.416 0 0.75 0.3345 0.75 0.75v-0.5c0-0.4155-0.334-0.75-0.75-0.75z" style="fill:#ffffff;opacity:.1"/>
 <path d="m2.75 5c-0.4155 0-0.75 0.3345-0.75 0.75v0.5c0-0.4155 0.3345-0.75 0.75-0.75h16.5c0.416 0 0.75 0.3345 0.75 0.75v-0.5c0-0.4155-0.334-0.75-0.75-0.75z" style="fill:#ffffff;opacity:.1"/>
 <g transform="translate(-2,-2)">
  <circle cx="18" cy="18" r="6" style="fill:#48aeff"/>
  <rect x="15" y="15" width="2" height="2" rx=".25" ry=".25" style="fill:#ffffff"/>
  <rect x="19" y="15" width="2" height="2" rx=".25" ry=".25" style="fill:#ffffff"/>
  <rect x="19" y="19" width="2" height="2" rx=".25" ry=".25" style="fill:#ffffff"/>
  <rect x="15" y="19" width="2" height="2" rx=".25" ry=".25" style="fill:#ffffff"/>
 </g>
</svg>

<svg xmlns="http://www.w3.org/2000/svg" width="22" height="22" version="1">
 <rect style="fill:#525252" width="18" height="12" x="2" y="1" rx=".75" ry=".75"/>
 <rect style="opacity:0.1" width="18" height="12" x="2" y="2.5" rx=".75" ry=".75"/>
 <rect style="fill:#89e058" width="18" height="12" x="2" y="3" rx=".75" ry=".75"/>
 <rect style="opacity:0.1" width="18" height="12" x="2" y="4.5" rx=".75" ry=".75"/>
 <rect style="fill:#ffcd54" width="18" height="12" x="2" y="5" rx=".75" ry=".75"/>
 <rect style="opacity:0.2" width="20" height="14" x="1" y="7.5" rx="1" ry="1"/>
 <rect style="fill:#8e8e8e" width="20" height="14" x="1" y="7" rx="1" ry="1"/>
 <rect style="opacity:0.2" width="6" height="2" x="8" y="12.5" rx=".5" ry=".5"/>
 <rect style="fill:#ececec" width="6" height="2" x="8" y="12" rx=".5" ry=".5"/>
 <path style="fill:#ffffff;opacity:0.1" d="M 2.75 1 C 2.3345 1 2 1.3345 2 1.75 L 2 2.25 C 2 1.8345 2.3345 1.5 2.75 1.5 L 19.25 1.5 C 19.666 1.5 20 1.8345 20 2.25 L 20 1.75 C 20 1.3345 19.666 1 19.25 1 L 2.75 1 z"/>
 <path style="opacity:0.1;fill:#ffffff" d="M 2.75,3 C 2.3345,3 2,3.3345 2,3.75 V 4.25 C 2,3.8345 2.3345,3.5 2.75,3.5 H 19.25 C 19.666,3.5 20,3.8345 20,4.25 V 3.75 C 20,3.3345 19.666,3 19.25,3 Z"/>
 <path style="opacity:0.1;fill:#ffffff" d="M 2.75,5 C 2.3345,5 2,5.3345 2,5.75 V 6.25 C 2,5.8345 2.3345,5.5 2.75,5.5 H 19.25 C 19.666,5.5 20,5.8345 20,6.25 V 5.75 C 20,5.3345 19.666,5 19.25,5 Z"/>
 <g transform="translate(-2,-2)">
  <circle style="fill:#48aeff" cx="18" cy="18" r="6"/>
  <rect style="fill:#ffffff" width="2" height="2" x="15" y="15" rx=".25" ry=".25"/>
  <rect style="fill:#ffffff" width="2" height="2" x="19" y="15" rx=".25" ry=".25"/>
  <rect style="fill:#ffffff" width="2" height="2" x="19" y="19" rx=".25" ry=".25"/>
  <rect style="fill:#ffffff" width="2" height="2" x="15" y="19" rx=".25" ry=".25"/>
 </g>
</svg>
